X:1
T:Sunny
C:1966 - Bobby Hebb
Z:www.realbook.site
L:1/8
M:4/4
I:linebreak $
K:C
V:1 treble 
V:1
"Am7" EE- E4 z2 |"Gm7" z4"C9" AGED |"F" C3 A, C D2 E- |"Bm7b5" E4"E7" z4 |$"Am7" EE- E4 z2 | %5
"Gm7" z2 z E"C9" AGED |"F" C2 CA, C D2 E- |"Bm7b5" E4"E7" z2 z C |$"Am7" E2 DC z2 DC | %9
"Gm7" E2 DC"C9" z2 z C |"F" E2 DC z2 DC |"Bb7" G2 ED- D2 CD |$"Bm7" EE z2 E E2 D- | %13
"E7" D2 z2 C2 D2 |"Am7" C A,3 z4 |"Bm7b5" z8"E7" |] %16

